polaris-icons/icons/newicons/PagePlusMajor.svg

<svg width="20" height="20" viewBox="0 0 20 20" fill="none" xmlns="http://www.w3.org/2000/svg">
<path fill-rule="evenodd" clip-rule="evenodd" d="M6.75 3.5C6.05964 3.5 5.5 4.05964 5.5 4.75V15.25C5.5 15.9404 6.05964 16.5 6.75 16.5H8.75C9.16421 16.5 9.5 16.8358 9.5 17.25C9.5 17.6642 9.16421 18 8.75 18H6.75C5.23122 18 4 16.7688 4 15.25V4.75C4 3.23122 5.23122 2 6.75 2H10C10.1989 2 10.3897 2.07902 10.5303 2.21967L15.7803 7.46967C15.921 7.61032 16 7.80109 16 8V10.75C16 11.1642 15.6642 11.5 15.25 11.5C14.8358 11.5 14.5 11.1642 14.5 10.75V8.75H11C10.0335 8.75 9.25 7.9665 9.25 7V3.5H6.75ZM10.75 4.56066L13.4393 7.25H11C10.8619 7.25 10.75 7.13807 10.75 7V4.56066Z" fill="black"/>
<path d="M11 16C11 15.5858 11.3358 15.25 11.75 15.25H13.25V13.75C13.25 13.3358 13.5858 13 14 13C14.4142 13 14.75 13.3358 14.75 13.75V15.25H16.25C16.6642 15.25 17 15.5858 17 16C17 16.4142 16.6642 16.75 16.25 16.75H14.75V18.25C14.75 18.6642 14.4142 19 14 19C13.5858 19 13.25 18.6642 13.25 18.25V16.75H11.75C11.3358 16.75 11 16.4142 11 16Z" fill="black"/>
</svg>

<svg viewBox="0 0 20 20" fill="none" xmlns="http://www.w3.org/2000/svg"><path fill-rule="evenodd" clip-rule="evenodd" d="M6.75 3.5c-.69 0-1.25.56-1.25 1.25v10.5c0 .69.56 1.25 1.25 1.25h2a.75.75 0 0 1 0 1.5h-2a2.75 2.75 0 0 1-2.75-2.75v-10.5a2.75 2.75 0 0 1 2.75-2.75h3.25a.75.75 0 0 1 .53.22l5.25 5.25c.141.14.22.331.22.53v2.75a.75.75 0 0 1-1.5 0v-2h-3.5a1.75 1.75 0 0 1-1.75-1.75v-3.5h-2.5Zm4 1.06 2.69 2.69h-2.44a.25.25 0 0 1-.25-.25v-2.44Z" fill="#5C5F62"/><path d="M11 16a.75.75 0 0 1 .75-.75h1.5v-1.5a.75.75 0 0 1 1.5 0v1.5h1.5a.75.75 0 0 1 0 1.5h-1.5v1.5a.75.75 0 0 1-1.5 0v-1.5h-1.5a.75.75 0 0 1-.75-.75Z" fill="#5C5F62"/></svg>
